app/javascript/images/toc-roleplay.svg

<?xml version="1.0" encoding="UTF-8"?>
<svg width="20px" height="18px" viewBox="0 0 20 18" version="1.1" xmlns="http://www.w3.org/2000/svg" xmlns:xlink="http://www.w3.org/1999/xlink">
    <!-- Generator: Sketch 42 (36781) - http://www.bohemiancoding.com/sketch -->
    <title>Fill 15 + Fill 17</title>
    <desc>Created with Sketch.</desc>
    <defs></defs>
    <g id="Page-1" stroke="none" stroke-width="1" fill="none" fill-rule="evenodd">
        <g id="Fill-15-+-Fill-17" fill="#EBEAE5">
            <path d="M2.5538961,15.5454545 L9.09935065,15.5454545 L9.09935065,15.1363636 C9.09935065,14.1218182 8.58962338,12.978 7.25925974,12.5018182 C7.63644156,12.1303636 7.87207792,11.6157273 7.87207792,11.0454545 C7.87207792,9.918 6.95407792,9 5.82662338,9 C4.69916883,9 3.78116883,9.918 3.78116883,11.0454545 C3.78116883,11.6157273 4.01680519,12.1303636 4.39398701,12.5018182 C3.06362338,12.978 2.5538961,14.1218182 2.5538961,15.1363636 L2.5538961,15.5454545 Z M10.7357143,14.7272727 L17.2811688,14.7272727 L17.2811688,13.9090909 L10.7357143,13.9090909 L10.7357143,14.7272727 Z M10.7357143,13.0909091 L17.2811688,13.0909091 L17.2811688,12.2727273 L10.7357143,12.2727273 L10.7357143,13.0909091 Z M10.7357143,11.4545455 L17.2811688,11.4545455 L17.2811688,10.6363636 L10.7357143,10.6363636 L10.7357143,11.4545455 Z M10.7357143,9.81818182 L14.0084416,9.81818182 L14.0084416,9 L10.7357143,9 L10.7357143,9.81818182 Z M0.0993506494,7.36363636 L19.7357143,7.36363636 L19.7357143,17.5909091 C19.7357143,17.8167273 19.5524416,18 19.3266234,18 L0.508441558,18 C0.282623377,18 0.0993506494,17.8167273 0.0993506494,17.5909091 L0.0993506494,7.36363636 Z" id="Fill-15"></path>
            <path d="M10.7357143,2.45454545 C10.7357143,2.00290909 10.3691688,1.63636364 9.91753247,1.63636364 C9.46507792,1.63636364 9.09935065,2.00290909 9.09935065,2.45454545 C9.09935065,2.90618182 9.46507792,3.27272727 9.91753247,3.27272727 C10.3691688,3.27272727 10.7357143,2.90618182 10.7357143,2.45454545 M19.7357143,3.68181818 L19.7357143,6.54545455 L0.0993506494,6.54545455 L0.0993506494,3.68181818 C0.0993506494,3.456 0.282623377,3.27272727 0.508441558,3.27272727 L7.46298701,3.27272727 L7.46298701,2.45454545 C7.46298701,1.10127273 8.56425974,0 9.91753247,0 C11.2708052,0 12.3720779,1.10127273 12.3720779,2.45454545 L12.3720779,3.27272727 L19.3266234,3.27272727 C19.5524416,3.27272727 19.7357143,3.456 19.7357143,3.68181818" id="Fill-17"></path>
        </g>
    </g>
</svg>

<svg width="20" height="18" viewBox="0 0 20 18" xmlns="http://www.w3.org/2000/svg"><path d="M2.554 15.545h6.545v-.409c0-1.014-.51-2.158-1.84-2.634a2.04 2.04 0 0 0 .613-1.457A2.048 2.048 0 0 0 5.827 9a2.048 2.048 0 0 0-2.046 2.045c0 .57.236 1.085.613 1.457-1.33.476-1.84 1.62-1.84 2.634v.41zm8.182-.818h6.545v-.818h-6.545v.818zm0-1.636h6.545v-.818h-6.545v.818zm0-1.636h6.545v-.819h-6.545v.819zm0-1.637h3.272V9h-3.272v.818zM.099 7.364h19.637V17.59a.41.41 0 0 1-.41.409H.509a.41.41 0 0 1-.409-.41V7.365zm10.637-4.909a.818.818 0 1 0-1.637 0 .818.818 0 0 0 1.637 0m9 1.227v2.863H.099V3.682a.41.41 0 0 1 .41-.41h6.954v-.817A2.458 2.458 0 0 1 9.918 0a2.458 2.458 0 0 1 2.454 2.455v.818h6.955a.41.41 0 0 1 .409.409" fill="#EBEAE5" fill-rule="evenodd"/></svg>
